apps/app.mento.org/public/tokens/cZAR.svg

<svg width="40" height="40" viewBox="0 0 40 40" fill="none" xmlns="http://www.w3.org/2000/svg">
<g clip-path="url(#clip0_4059_20142)">
<path d="M20 40C31.0457 40 40 31.0457 40 20C40 8.95431 31.0457 0 20 0C8.95431 0 0 8.95431 0 20C0 31.0457 8.95431 40 20 40Z" fill="#8C35FD"/>
<path d="M30.8805 22.748H28.1445L23.7942 15.8664H26.4544L30.8805 22.748Z" fill="#FCFBFF"/>
<path d="M19.0284 22.748V6.74805H24.7316C25.9712 6.74805 26.9998 6.96159 27.8175 7.38867C28.6404 7.81575 29.255 8.4069 29.6613 9.16211C30.0675 9.91211 30.2706 10.7793 30.2706 11.7637C30.2706 12.7428 30.0649 13.6048 29.6534 14.3496C29.2472 15.0892 28.6326 15.6647 27.8097 16.0762C26.992 16.4876 25.9633 16.6934 24.7238 16.6934H20.4034V14.6152H24.505C25.2863 14.6152 25.9217 14.5033 26.4113 14.2793C26.906 14.0553 27.268 13.7298 27.4972 13.3027C27.7264 12.8757 27.8409 12.3626 27.8409 11.7637C27.8409 11.1595 27.7238 10.6361 27.4894 10.1934C27.2602 9.75065 26.8982 9.41211 26.4034 9.17774C25.9139 8.93815 25.2706 8.81836 24.4738 8.81836H21.4425V22.748H19.0284Z" fill="#FCFBFF"/>
<path d="M25.8439 22.7485L27.4611 22.7485L23.4551 16.5137L21.8379 16.5137L25.8439 22.7485Z" fill="#FCFBFF"/>
<path d="M19.9531 30.6036C15.4939 30.6036 11.8491 26.9596 11.8491 22.4996C11.8491 19.3348 13.6715 16.5532 16.3563 15.2588V12.334C12.1843 13.8204 9.16345 17.8004 9.16345 22.4996C9.16345 28.446 14.0067 33.2892 19.9531 33.2892C24.6523 33.2892 28.6323 30.2684 30.1187 26.0964H27.1939C25.8995 28.782 23.1179 30.6036 19.9531 30.6036Z" fill="#FCFBFF"/>
</g>
<defs>
<clipPath id="clip0_4059_20142">
<rect width="40" height="40" fill="white"/>
</clipPath>
</defs>
</svg>

<svg xmlns="http://www.w3.org/2000/svg" width="40" height="40" fill="none" viewBox="0 0 40 40"><g clip-path="url(#a)"><path fill="#8C35FD" d="M20 40c11.046 0 20-8.954 20-20S31.046 0 20 0 0 8.954 0 20s8.954 20 20 20"/><path fill="#FCFBFF" d="M30.88 22.748h-2.735l-4.35-6.882h2.66z"/><path fill="#FCFBFF" d="M19.028 22.748v-16h5.704q1.86 0 3.085.64 1.235.642 1.844 1.774.61 1.125.61 2.602 0 1.468-.618 2.586-.609 1.11-1.843 1.726-1.227.617-3.086.617h-4.32v-2.078h4.101q1.172 0 1.906-.336.743-.337 1.086-.976.345-.64.344-1.54 0-.906-.352-1.57-.343-.663-1.086-1.015-.734-.36-1.93-.36h-3.03v13.93z"/><path fill="#FCFBFF" d="M25.844 22.749h1.617l-4.006-6.235h-1.617z"/><path fill="#FCFBFF" d="M19.953 30.604c-4.46 0-8.104-3.644-8.104-8.104 0-3.165 1.822-5.947 4.507-7.241v-2.925C12.184 13.82 9.163 17.8 9.163 22.5c0 5.946 4.844 10.79 10.79 10.79 4.7 0 8.68-3.022 10.166-7.194h-2.925c-1.294 2.686-4.076 4.508-7.24 4.508"/></g><defs><clipPath id="a"><path fill="#fff" d="M0 0h40v40H0z"/></clipPath></defs></svg>
